X: 1
T: Missa L'homme arm\'e / Kyrie
N: Derived from Tin1001a-Missa_Lhomme_arme-Kyrie.krn
C: Johannes Tinctoris
%%abc-version 2.0
%%abcx-abcm2ps-target-version 5.9.1 (29 Sep 2008)
%%abc-creator hum2abc beta
%%abcx-conversion-date 2019/02/17 07:34:55
%%abc-edited-by Jesse Rodin
%%abc-edited-by Complete Works (Melin)
%%abcx-initial-encoding-date 2014/06/10/
%%humdrum-veritas 3663366929
%%humdrum-veritas-data 2181598850
%%linebreak <none>
%%barnumbers 0
L: 1/4
M: 3/1
Q: 1/2=120
%%staves [1 2 3 4]
V: 1 clef=treble
V: 2 clef=treble-8
V: 3 clef=treble-8
V: 4 clef=bass
K: F
[V:1] D8G4 | 
[V:2] z12 :
[V:3] G4D2G3FED | 
[V:4] G,,8G,,4 | 
[V:1] G3FE2E2D2G2 | 
[V:2] G8G4 | 
[V:3] E6C2D4 | 
[V:4] C,8B,,4 | 
[V:1] A3Bc2c3BAG/A/ | 
[V:2] c8c4 :
[V:3] E2F2E3A3/G/^F/E/^F2 | 
[V:4] A,,12 | 
[V:1] B3A/G/F3A3/G/^F/E/F2 | 
[V:2] B4A8 | 
[V:3] G4z4z4 | 
[V:4] G,,4D,4D,4 | 
[V:1] G6B3AGF | 
[V:2] G12 :
[V:3] z4d4d4 | 
[V:4] G,,4z2G,,3A,,B,,2 | 
[V:1] E3D/E/F2D4^C2 | 
[V:2] z12 | 
[V:3] G2A3GF2E4 | 
[V:4] C,2A,,2D,4A,,4 | 
[V:1] D8z2E2 | 
[V:2] z12 :
[V:3] D4z2d3^c/=B/^c2 | 
[V:4] z2A,3G,F,2E,4 | 
[V:1] F3EG2D3EF2 | 
[V:2] z4d4d4 | 
[V:3] d2D2G2B3AF2 | 
[V:4] D,2A,2B,2G,3F,D,2 | 
[V:1] E3DG4G4 | 
[V:2] G12 :
[V:3] G2E3D/C/D2E2C2 | 
[V:4] E,2C,3B,,G,,2C,2E,2 | 
[V:1] A6G2z2A2 | 
[V:2] z4d4d4 | 
[V:3] F3GA2B3A/G/A2 | 
[V:4] D,3E,F,2G,3F,/E,/F,2 | 
[V:1] B3A/B/c3A2G/F/E2 | 
[V:2] d4c8 :
[V:3] G4z4z4 | 
[V:4] z2G,2C,3/D,/E,F,2E,/D,/C,2 | 
[V:1] D2G2FA3/B/c3/B/A/G/^F3/E/ | 
[V:2] B4A8 | 
[V:3] z2G2DF3/G/A3/B/c3/B/A/G/ | 
[V:4] G,4z4z4 | 
[V:1] G4D2G3FED/C/ | 
[V:2] G12 :
[V:3] B2G3B3/A/GEFG2- | 
[V:4] G,,2C,2B,,2G,,C,2D,E,F, | 
[V:1] B,3CD2C4=B,2 | 
[V:2] z12 | 
[V:3] GAB2A3/G/G3F/E/F2 | 
[V:4] G,4F,2E,2D,4 | 
[V:1] C2D3C/B,/A,2z2A,2 | 
[V:2] [M:2/1]g4g2f4f2 | 
[V:3] G4z4z4 | 
[V:4] C,2G,,B,,2C,D,3C,/B,,/A,,2 | 
[V:1] B,2G,B,2CD3C/B,/A,2 | 
[V:2] g4g2d6 | 
[V:3] D2G3AB3A/G/F2 | 
[V:4] G,,8z2D,2 | 
[V:1] G,4z4z4 | 
[V:2] g4g2f4f2 | 
[V:3] B2GB2cd3c/B/A2 | 
[V:4] G,,3G,3/F,/E,D,6 | 
[V:1] G2E2D3G3/F/DE2 | 
[V:2] g6d4g2 | 
[V:3] G2c2B3B3/A/d2c | 
[V:4] E,2C,2G,3G,2F,E,2 | 
[V:1] F3/E/CDE2D3^C/=B,/C2 | 
[V:2] a4g2f2e4 | 
[V:3] d2c4A4A2 | 
[V:4] D,2A,,2C,2D,2A,,4 | 
[V:1] D4B,3G,2C3/B,/G, | 
[V:2] d8z4 | 
[V:3] F4D2d2_e2c2- | 
[V:4] z2B,,4G,,2C,2E,2 | 
[V:1] A,G,/A,/F,3/E,/G,2z2G4 | 
[V:2] z6G4G2 | 
[V:3] c=B/A/=B2c4B2G2 | 
[V:4] D,4C,4G,,2C,2- | 
[V:1] G2c3ABG2^FFE | 
[V:2] c4c2B2A4 | 
[V:3] E2F3EG2z2A2 | 
[V:4] C,B,,A,,G,,A,,2G,,2D,4 | 
[V:1] G3FD3CB,A,D2- | 
[V:2] G6z6 | 
[V:3] B6G3FD2 | 
[V:4] z2G,,4G,,3A,,B,,2 | 
[V:1] D^C/=B,/C2D2zG2A2F | 
[V:2] z6z2d2d2 | 
[V:3] E4D2d3/c/BA/G/Ad- | 
[V:4] A,,4A,2G,3F,D,2 | 
[V:1] G3/F/EDG2A2B3A/G/ | 
[V:2] G6z2d2d2 | 
[V:3] dccBd4z2B2- | 
[V:4] E,4z2D,2G,4- | 
[V:1] B2c3/B/AGG3^F/G/FE | 
[V:2] d2c4B2A4 | 
[V:3] B2A4d3c/B/A2 | 
[V:4] G,2A,2F,2G,2D,4 | 
[V:1] G12 ||  
[V:2] G12 ||  
[V:3] B3cd8 ||  
[V:4] G,,12 ||  
[V:1]  [K:F] [K:clef=treble][M:2/1]z8 | 
[V:2]  [K:F] [K:clef=treble-8][M:2/1]z8 | 
[V:3]  [K:F] [K:clef=treble-8][M:2/1]G8 | 
[V:4]  [K:F] [K:clef=bass][M:2/1]G,,8 | 
[V:1] z8 | 
[V:2] z8 | 
[V:3] G6AB | 
[V:4] G,,2A,,B,,C,3D, | 
[V:1] z8 | 
[V:2] z8 | 
[V:3] c2d3cBA | 
[V:4] E,2F,2G,3F, | 
[V:1] z8 | 
[V:2] z8 | 
[V:3] G2c4B2 | 
[V:4] E,D,C,2D,4 | 
[V:1] z8 | 
[V:2] z8 | 
[V:3] c4B2A2- | 
[V:4] C,2A,,2G,,2D,2- | 
[V:1] z8 | 
[V:2] z8 | 
[V:3] AGFEDEFG | 
[V:4] D,E,F,3E,D,2- | 
[V:1] z8 | 
[V:2] z8 | 
[V:3] A2G4^F2 | 
[V:4] D,C,B,,2A,,4 | 
[V:1] z8 | 
[V:2] z8 | 
[V:3] G8- | 
[V:4] G,,8 | 
[V:1] D4D4 | 
[V:2] z4d4 | 
[V:3] G8 | 
[V:4] z8 | 
[V:1] G,4z2D2- | 
[V:2] d4G4 | 
[V:3] z8 | 
[V:4] z8 | 
[V:1] DEF3ED2 | 
[V:2] z2d3ef2 | 
[V:3] z8 | 
[V:4] z8 | 
[V:1] E2C4=B,2 | 
[V:2] g3fe2d2- | 
[V:3] z8 | 
[V:4] z8 | 
[V:1] C2E2D4 | 
[V:2] dcc4B2 | 
[V:3] z8 | 
[V:4] z8 | 
[V:1] C2A,2G,2G2- | 
[V:2] c4B4 | 
[V:3] z8 | 
[V:4] z8 | 
[V:1] GAB3AB2 | 
[V:2] G8 | 
[V:3] z8 | 
[V:4] z8 | 
[V:1] cBAG^F3E | 
[V:2] A8 | 
[V:3] z8 | 
[V:4] z8 | 
[V:1] G8 | 
[V:2] G4z4 | 
[V:3] z8 | 
[V:4] z4G,,4- | 
[V:1] z8 | 
[V:2] g8 | 
[V:3] z8 | 
[V:4] G,,2C,4B,,2 | 
[V:1] z8 | 
[V:2] g4f3g | 
[V:3] z8 | 
[V:4] C,2_E,2D,3=E, | 
[V:1] z8 | 
[V:2] a2g4f2 | 
[V:3] z8 | 
[V:4] F,2G,2A,3G, | 
[V:1] z8 | 
[V:2] g3fedf2- | 
[V:3] z8 | 
[V:4] E,2G,3F,D,2 | 
[V:1] z8 | 
[V:2] fed3^c^c=B | 
[V:3] z8 | 
[V:4] F,2G,2E,4 | 
[V:1] z8 | 
[V:2] d8 | 
[V:3] z8 | 
[V:4] D,8 | 
[V:1] G8 | 
[V:2] z8 | 
[V:3] G3AB2c2- | 
[V:4] z8 | 
[V:1] G4F3G | 
[V:2] z8 | 
[V:3] cd_e2d4 | 
[V:4] z8 | 
[V:1] A2G4F2 | 
[V:2] z8 | 
[V:3] c2B2A4 | 
[V:4] z8 | 
[V:1] G3FEDF2- | 
[V:2] z8 | 
[V:3] G2c3BAG | 
[V:4] z8 | 
[V:1] FED3^CC=B, | 
[V:2] z8 | 
[V:3] A2F2E4 | 
[V:4] z4G,4 | 
[V:1] D4z4 | 
[V:2] z8 | 
[V:3] D2F3GA2 | 
[V:4] A,8 | 
[V:1] z8 | 
[V:2] z8 | 
[V:3] B2AGA2d2- | 
[V:4] G,4F,4 | 
[V:1] z8 | 
[V:2] z8 | 
[V:3] d2^c2^c2=B^c | 
[V:4] E,8 | 
[V:1] z8 | 
[V:2] z8 | 
[V:3] d8 | 
[V:4] D,4D,4 | 
[V:1] z8 | 
[V:2] d4d2ef | 
[V:3] z8 | 
[V:4] D,2E,F,G,4- | 
[V:1] z8 | 
[V:2] g2a2d3e | 
[V:3] z8 | 
[V:4] G,2F,2G,2B,2- | 
[V:1] z8 | 
[V:2] f2g3^f^fe | 
[V:3] z8 | 
[V:4] B,A,G,2A,4 | 
[V:1] z4G4 | 
[V:2] g4G2AB | 
[V:3] z8 | 
[V:4] G,4z4 | 
[V:1] G2ABc4 | 
[V:2] c6de | 
[V:3] z8 | 
[V:4] z8 | 
[V:1] cBAGB4 | 
[V:2] f3ed2g2- | 
[V:3] z8 | 
[V:4] z8 | 
[V:1] A8 | 
[V:2] g2^fe^fga^f | 
[V:3] d4d4 | 
[V:4] z8 | 
[V:1] G4z2D2- | 
[V:2] g4z4 | 
[V:3] G4A2B2- | 
[V:4] z8 | 
[V:1] DC_E3DCB, | 
[V:2] z8 | 
[V:3] BAc3BAG | 
[V:4] z8 | 
[V:1] A,2B,2A,4 | 
[V:2] z8 | 
[V:3] F2G3^F^FE | 
[V:4] z8 | 
[V:1] z2G,3A,B,C | 
[V:2] d2d2g4 | 
[V:3] G3ABcd2 | 
[V:4] z4G,,3A,, | 
[V:1] D3EFGA2- | 
[V:2] f4z2f2- | 
[V:3] z2D3EFG | 
[V:4] B,,3C,D,3E, | 
[V:1] AGc4B2- | 
[V:2] fga2f2g2- | 
[V:3] A3Gc2d2- | 
[V:4] F,3G,A,2G,2- | 
[V:1] BAG3^FFE | 
[V:2] gfd3cA2 | 
[V:3] dcB2A4 | 
[V:4] G,4D,4 | 
[V:1] G8- | 
[V:2] B6c2 | 
[V:3] G8- | 
[V:4] G,,8- | 
[V:1] G8 ||  
[V:2] d8 ||  
[V:3] G8 ||  
[V:4] G,,8 ||  
[V:1]  [K:F] [K:clef=treble][M:3/1]z12 | 
[V:2]  [K:F] [K:clef=treble-8][M:3/1]d8d4 | 
[V:3]  [K:F] [K:clef=treble-8][M:3/1]z12 | 
[V:4]  [K:F] [K:clef=bass][M:3/1]G,12 | 
[V:1] z12 | 
[V:2] g8g4 | 
[V:3] G8G4 | 
[V:4] C,6D,2E,4 | 
[V:1] z4G8 | 
[V:2] f4e8 | 
[V:3] c8c4 | 
[V:4] F,4C,8 | 
[V:1] G4c8 | 
[V:2] d4e2^f4e^f | 
[V:3] B4A8 | 
[V:4] G,4z4z4 | 
[V:1] B6AGB4 | 
[V:2] g6fed3e | 
[V:3] G12 | 
[V:4] G,,12 | 
[V:1] A12 | 
[V:2] fga3g^fe^f4 | 
[V:3] z12 | 
[V:4] D,4D,8 | 
[V:1] G4D8 | 
[V:2] g8d4 | 
[V:3] z12 | 
[V:4] G,,8G,4 | 
[V:1] G,4z4G,4- | 
[V:2] d4G4z4 | 
[V:3] z4d8 | 
[V:4] B,6C2B,3A, | 
[V:1] G,4G8 | 
[V:2] d4d4d4 | 
[V:3] G12 | 
[V:4] B,8B,4 | 
[V:1] A4B4G4 | 
[V:2] c4B8 | 
[V:3] z4d4d4 | 
[V:4] A,4G,8 | 
[V:1] A4A3GE4 | 
[V:2] A8G4- | 
[V:3] d4c8 | 
[V:4] D,4F,3E,C,4 | 
[V:1] D2G4^F2F2EF | 
[V:2] G4z4z4 | 
[V:3] B4A8 | 
[V:4] G,,4D,8 | 
[V:1] G12 | 
[V:2] z12 | 
[V:3] G12- | 
[V:4] G,,12 | 
[V:1] z4G8- | 
[V:2] z12 | 
[V:3] G4z4z4 | 
[V:4] C,12- | 
[V:1] G4c6Bc | 
[V:2] g8g4 | 
[V:3] c4c6Bc | 
[V:4] C,12 | 
[V:1] A6B4A2 | 
[V:2] f8f4 | 
[V:3] d4d8 | 
[V:4] z12 | 
[V:1] c12 | 
[V:2] g8g4 | 
[V:3] c12 | 
[V:4] C,4C,6B,,C, | 
[V:1] z12 | 
[V:2] d12 | 
[V:3] A6B4A2 | 
[V:4] D,4D,8 | 
[V:1] z4C8 | 
[V:2] g8g4 | 
[V:3] c6BAG4 | 
[V:4] C,8E,4 | 
[V:1] D4D8- | 
[V:2] f12 | 
[V:3] A12 | 
[V:4] D,12 | 
[V:1] D4C3DE2DE | 
[V:2] g12 | 
[V:3] G12 | 
[V:4] G,,4C,8 | 
[V:1] F6D2E4 | 
[V:2] d8g4 | 
[V:3] B8B4 | 
[V:4] B,,8G,,4 | 
[V:1] F8E4 | 
[V:2] a8g4 | 
[V:3] A4A3Bc4 | 
[V:4] F,,4F,4C,4 | 
[V:1] D6^C=B,C4 | 
[V:2] f4e8 | 
[V:3] A12 | 
[V:4] D,4A,,8 | 
[V:1] D8z4 | 
[V:2] d4d4d4 | 
[V:3] F4D8 | 
[V:4] B,,8G,,4 | 
[V:1] D8D4 | 
[V:2] g4g4g3f | 
[V:3] D4G8 | 
[V:4] G,,8z4 | 
[V:1] G4G3FD4 | 
[V:2] d2B3cd2B3A | 
[V:3] z12 | 
[V:4] G,,8G,,4 | 
[V:1] E8D4 | 
[V:2] c8d4 | 
[V:3] G8G4 | 
[V:4] C,8B,,4 | 
[V:1] E2A4GFE2F2 | 
[V:2] z2c2A3Bc4 | 
[V:3] c8c4 | 
[V:4] A,,4A,,8 | 
[V:1] G6^FGF2E2 | 
[V:2] d12 | 
[V:3] B4A8 | 
[V:4] G,,4D,4D,4 | 
[V:1] G4z4G4 | 
[V:2] B3cd6cB | 
[V:3] G12 | 
[V:4] G,,8z4 | 
[V:1] F2A3GF2E4 | 
[V:2] A2F3ED2E2F2 | 
[V:3] z12 | 
[V:4] D,4D,4C,4 | 
[V:1] D4z2C3B,A,G, | 
[V:2] G6E2F2EF | 
[V:3] z12 | 
[V:4] B,,4A,,8 | 
[V:1] B,4G,2D3EF2 | 
[V:2] G2B4AGA4 | 
[V:3] z4d4d4 | 
[V:4] G,,2G,4F,2D,4 | 
[V:1] G3FEDE2^C3=B, | 
[V:2] z12 | 
[V:3] G12 | 
[V:4] E,12 | 
[V:1] D4A4G4 | 
[V:2] A4F4G3F | 
[V:3] z4d4d4 | 
[V:4] D,8G,,3A,, | 
[V:1] F4E6DC | 
[V:2] D4z4G4 | 
[V:3] d4c8 | 
[V:4] B,,4C,6B,,2 | 
[V:1] D2G4^F2F2EF | 
[V:2] G2d4cBA3A | 
[V:3] B4A8 | 
[V:4] G,,4D,8 | 
[V:1] G12 |]  
[V:2] B3cd8 |]  
[V:3] G12 |]  
[V:4] G,,12 |]  



